public/react-js.svg

<svg id="Layer_2" xmlns="http://www.w3.org/2000/svg" viewBox="0 0 3618.6 3618.6" width="3618.6" height="3618.6"><style>.st0{fill:#222}.st1{fill:#00d8ff}.st2{fill:none;stroke:#00d8ff;stroke-width:144.7456;stroke-miterlimit:10}</style><path class="st0" d="M0 0h3618.6v3618.6H0z"/><circle class="st1" cx="1806.5" cy="1807.1" r="302.6"/><path class="st2" d="M1806.5 1191.9c406.2 0 783.6 58.3 1068.1 156.2 342.8 118 553.6 296.9 553.6 458.9 0 168.8-223.4 358.9-591.5 480.8-278.3 92.2-644.6 140.4-1030.2 140.4-395.4 0-769.7-45.2-1051.2-141.4-356.1-121.7-570.6-314.2-570.6-479.8 0-160.7 201.3-338.2 539.3-456 285.6-99.5 672.3-159.1 1082.5-159.1z"/><path class="st2" d="M1271 1501.3c202.9-351.9 442-649.7 669-847.2 273.5-238 533.8-331.2 674.1-250.3 146.2 84.3 199.3 372.8 121 752.7-59.2 287.2-200.4 628.5-393.1 962.6-197.5 342.5-423.7 644.2-647.6 840-283.3 247.7-557.3 337.3-700.7 254.6-139.2-80.3-192.4-343.3-125.7-695 56.4-297.4 198-662.1 403-1017.4z"/><path class="st2" d="M1271.5 2119.8c-203.5-351.6-342.1-707.4-399.9-1002.7-69.6-355.8-20.4-627.9 119.8-709 146.1-84.6 422.5 13.5 712.5 271 219.3 194.7 444.4 487.5 637.6 821.3 198.1 342.2 346.6 688.8 404.3 980.5 73.1 369.2 13.9 651.3-129.4 734.2-139.1 80.5-393.5-4.7-664.9-238.2-229.2-197.3-474.5-502.1-680-857.1z"/></svg>

<svg width="3619" height="3619" viewBox="0 0 3619 3619" fill="none" xmlns="http://www.w3.org/2000/svg">
<g clip-path="url(#clip0_15_37)">
<path d="M1806.5 2109.7C1973.62 2109.7 2109.1 1974.22 2109.1 1807.1C2109.1 1639.98 1973.62 1504.5 1806.5 1504.5C1639.38 1504.5 1503.9 1639.98 1503.9 1807.1C1503.9 1974.22 1639.38 2109.7 1806.5 2109.7Z" fill="#D8D8D8"/>
<path d="M1806.5 1191.9C2212.7 1191.9 2590.1 1250.2 2874.6 1348.1C3217.4 1466.1 3428.2 1645 3428.2 1807C3428.2 1975.8 3204.8 2165.9 2836.7 2287.8C2558.4 2380 2192.1 2428.2 1806.5 2428.2C1411.1 2428.2 1036.8 2383 755.3 2286.8C399.2 2165.1 184.7 1972.6 184.7 1807C184.7 1646.3 386 1468.8 724 1351C1009.6 1251.5 1396.3 1191.9 1806.5 1191.9Z" stroke="#D8D8D8" stroke-width="144.746" stroke-miterlimit="10"/>
<path d="M1271 1501.3C1473.9 1149.4 1713 851.6 1940 654.1C2213.5 416.1 2473.8 322.9 2614.1 403.8C2760.3 488.1 2813.4 776.6 2735.1 1156.5C2675.9 1443.7 2534.7 1785 2342 2119.1C2144.5 2461.6 1918.3 2763.3 1694.4 2959.1C1411.1 3206.8 1137.1 3296.4 993.7 3213.7C854.5 3133.4 801.3 2870.4 868 2518.7C924.4 2221.3 1066 1856.6 1271 1501.3Z" stroke="#D8D8D8" stroke-width="144.746" stroke-miterlimit="10"/>
<path d="M1271.5 2119.8C1068 1768.2 929.4 1412.4 871.6 1117.1C802 761.3 851.2 489.2 991.4 408.1C1137.5 323.5 1413.9 421.6 1703.9 679.1C1923.2 873.8 2148.3 1166.6 2341.5 1500.4C2539.6 1842.6 2688.1 2189.2 2745.8 2480.9C2818.9 2850.1 2759.7 3132.2 2616.4 3215.1C2477.3 3295.6 2222.9 3210.4 1951.5 2976.9C1722.3 2779.6 1477 2474.8 1271.5 2119.8Z" stroke="#D8D8D8" stroke-width="144.746" stroke-miterlimit="10"/>
</g>
<defs>
<clipPath id="clip0_15_37">
<rect width="3618.6" height="3618.6" fill="white"/>
</clipPath>
</defs>
</svg>
